assets/images/icons/src/sort.svg

<?xml version="1.0" encoding="utf-8"?>
<!-- Generated by IcoMoon.io -->
<!DOCTYPE svg PUBLIC "-//W3C//DTD SVG 1.1//EN" "http://www.w3.org/Graphics/SVG/1.1/DTD/svg11.dtd">
<svg version="1.1" xmlns="http://www.w3.org/2000/svg" xmlns:xlink="http://www.w3.org/1999/xlink" width="8" height="14" viewBox="0 0 8 14">
<path fill="#444444" d="M8 8.5q0 0.203-0.148 0.352l-3.5 3.5q-0.148 0.148-0.352 0.148t-0.352-0.148l-3.5-3.5q-0.148-0.148-0.148-0.352t0.148-0.352 0.352-0.148h7q0.203 0 0.352 0.148t0.148 0.352zM8 5.5q0 0.203-0.148 0.352t-0.352 0.148h-7q-0.203 0-0.352-0.148t-0.148-0.352 0.148-0.352l3.5-3.5q0.148-0.148 0.352-0.148t0.352 0.148l3.5 3.5q0.148 0.148 0.148 0.352z"></path>
</svg>

<svg xmlns="http://www.w3.org/2000/svg" width="8" height="14" viewBox="0 0 8 14"><path fill="#444" d="M8 8.5q0 .203-.148.352l-3.5 3.5Q4.204 12.5 4 12.5t-.352-.148l-3.5-3.5Q0 8.704 0 8.5t.148-.352T.5 8h7q.203 0 .352.148T8 8.5zm0-3q0 .203-.148.352T7.5 6h-7q-.203 0-.352-.148T0 5.5t.148-.352l3.5-3.5Q3.796 1.5 4 1.5t.352.148l3.5 3.5Q8 5.296 8 5.5z"/></svg>
